X: 10601
T: FAVORITE SCOTCH HORNPIPE
C:
%R: hornpipe, reel
B: Elias Howe "The Musician's Companion" Part 1 1842 p.60 #1
S: http://imslp.org/wiki/The_Musician's_Companion_(Howe,_Elias)
Z: 2015 John Chambers <jc:trillian.mit.edu>
M: 2/4
L: 1/16
K: D
% - - - - - - - - - - - - - - - - - - - - - - - - -
|:\
F3F FGFE | DFAF B2A2 | (BF)(AF) (BF)(AF) | EDEF EDB,D |\
A,DDE FGFE | DFAF B2A2 | BFAB cdeg | fdec | d2d2 :|
|:\
f3f fgfe | (de)(fd) B2A2 | (Bd)(Ad) (Bd)(AF) | EDEF EDB,D |\
A,DDE FGFE | DFAF B2A2 | (BFAB) (cd)(eg) | (fe).d.c d2d2 :|
% - - - - - - - - - - - - - - - - - - - - - - - - -


